packages/foundations/assets/icons/functional/images/audio & video/fast_backward_10_32.svg

<svg width="32" height="32" viewBox="0 0 32 32" fill="none" xmlns="http://www.w3.org/2000/svg">
<g clip-path="url(#clip0_184_226)">
<path fill-rule="evenodd" clip-rule="evenodd" d="M27.85 18.9896C27.85 12.8796 22.824 7.95857 16.703 8.02257L18.023 6.70457C18.1156 6.61146 18.1888 6.50099 18.2386 6.37949C18.2884 6.25799 18.3137 6.12786 18.313 5.99657C18.3149 5.86503 18.2904 5.73446 18.2409 5.61258C18.1914 5.49069 18.1179 5.37999 18.0248 5.28702C17.9318 5.19404 17.821 5.1207 17.6991 5.07132C17.5771 5.02195 17.4465 4.99755 17.315 4.99957C17.1836 4.99894 17.0533 5.02423 16.9316 5.07399C16.81 5.12375 16.6993 5.197 16.606 5.28957L13.45 8.43957C13.3574 8.53267 13.2841 8.64314 13.2344 8.76464C13.1846 8.88614 13.1593 9.01627 13.16 9.14757C13.159 9.41268 13.2633 9.66734 13.45 9.85557L16.607 13.0076C16.7004 13.1002 16.8112 13.1736 16.9331 13.2233C17.0549 13.2731 17.1854 13.2983 17.317 13.2976C17.897 13.2976 18.315 12.8466 18.315 12.2996C18.3157 12.1683 18.2904 12.0381 18.2406 11.9166C18.1908 11.7951 18.1176 11.6847 18.025 11.5916L16.446 10.0156C21.44 9.79057 25.853 13.7786 25.853 18.9576C25.8565 21.135 25.0662 23.239 23.63 24.8756C23.4807 25.0562 23.4009 25.2843 23.405 25.5186C23.405 26.0976 23.824 26.5486 24.403 26.5486C24.6507 26.551 24.8894 26.4562 25.068 26.2846L25.144 26.1946C26.915 24.1996 27.85 21.6266 27.85 18.9896ZM4.14999 18.7766C4.14999 18.4236 4.37599 18.0366 4.69799 17.8766L7.62899 16.3966C7.75998 16.3344 7.90299 16.3016 8.04799 16.3006C8.49899 16.3006 9.07799 16.6216 9.07799 17.2976V25.0056H11.173C11.721 25.0056 12.172 25.4246 12.172 26.0026C12.172 26.5496 11.721 27.0006 11.172 27.0006H5.18199C4.63399 27.0006 4.18299 26.5506 4.18299 26.0026C4.18299 25.4246 4.63399 25.0056 5.18199 25.0056H7.08199V18.9376L5.60099 19.6776C5.4697 19.7399 5.32633 19.7727 5.18099 19.7736C4.63399 19.7736 4.14999 19.2916 4.14999 18.7766ZM17.165 15.9996C19.485 15.9996 21.159 17.4996 21.159 20.0196V22.9466C21.159 25.4996 19.419 26.9666 17.165 26.9996C14.91 27.0316 13.202 25.4996 13.202 23.0106V19.9236C13.202 17.4996 14.974 15.9996 17.165 15.9996ZM17.165 17.9936C15.78 17.9936 15.167 18.6046 15.167 19.9236V23.0106C15.167 24.4586 15.747 25.0376 17.165 25.0376C18.55 25.0376 19.195 24.3616 19.195 22.9466V20.0196C19.195 18.5726 18.615 17.9936 17.165 17.9936Z" fill="#1A1C1F"/>
</g>
<defs>
<clipPath id="clip0_184_226">
<rect width="32" height="32" fill="white"/>
</clipPath>
</defs>
</svg>

<svg xmlns="http://www.w3.org/2000/svg" width="32" height="32" fill="none"><g clip-path="url(#a)"><path fill="#1A1C1F" fill-rule="evenodd" d="M27.85 18.99c0-6.11-5.026-11.031-11.147-10.967l1.32-1.318a1 1 0 0 0 .29-.708.983.983 0 0 0-.998-.997 1 1 0 0 0-.709.29L13.45 8.44a1 1 0 0 0-.29.708 1 1 0 0 0 .29.708l3.157 3.152a1 1 0 0 0 .71.29c.58 0 .998-.451.998-.998a1 1 0 0 0-.29-.708l-1.579-1.576c4.994-.225 9.407 3.763 9.407 8.942a8.95 8.95 0 0 1-2.223 5.918.98.98 0 0 0-.225.643c0 .579.419 1.03.998 1.03a.95.95 0 0 0 .665-.264l.076-.09c1.771-1.995 2.706-4.568 2.706-7.205m-23.7-.213c0-.353.226-.74.548-.9l2.931-1.48a1 1 0 0 1 .419-.096c.451 0 1.03.32 1.03.997v7.708h2.095c.548 0 .999.419.999.997 0 .547-.451.998-1 .998h-5.99c-.548 0-.999-.45-.999-.998 0-.578.451-.997.999-.997h1.9v-6.068l-1.481.74a1 1 0 0 1-.42.096c-.547 0-1.031-.482-1.031-.997M17.165 16c2.32 0 3.994 1.5 3.994 4.02v2.927c0 2.553-1.74 4.02-3.994 4.053-2.255.032-3.963-1.5-3.963-3.99v-3.086c0-2.424 1.772-3.924 3.963-3.924m0 1.994c-1.385 0-1.998.61-1.998 1.93v3.087c0 1.448.58 2.027 1.998 2.027 1.385 0 2.03-.676 2.03-2.091V20.02c0-1.447-.58-2.026-2.03-2.026" clip-rule="evenodd"/></g><defs><clipPath id="a"><path fill="#fff" d="M0 0h32v32H0z"/></clipPath></defs></svg>
